images/people/people-31.svg

<?xml version="1.0" standalone="no"?><!DOCTYPE svg PUBLIC "-//W3C//DTD SVG 1.1//EN" "http://www.w3.org/Graphics/SVG/1.1/DTD/svg11.dtd"><svg width="120px" height="192px" version="1.1" xmlns="http://www.w3.org/2000/svg" xmlns:xlink="http://www.w3.org/1999/xlink" xml:space="preserve" style="fill-rule:evenodd;clip-rule:evenodd;stroke-linejoin:round;stroke-miterlimit:1.41421;"><g><g id="people-31" transform="matrix(1,0,0,1,-317.089,-48)"><g transform="matrix(1,0,0,1,0,-12)"><path d="M369.506,231.914l-0.944,6.753l5.738,-0.145l-0.203,-7.1l-4.591,0.492Z" style="fill:#553f37;fill-rule:nonzero;"/></g><g transform="matrix(1,0,0,1,0,-12)"><path d="M374.335,242.231l1.347,9.769l5.301,0l0.757,-2.111l-1.376,-8.902l-6.029,1.244Z" style="fill:#553f37;fill-rule:nonzero;"/></g><g transform="matrix(1,0,0,1,0,-12)"><path d="M383.674,136.123l-2.834,-1.855l-2.062,-5.738l-4.757,1.332l-1.511,3.645l-3.261,1.604l7.104,11.264l7.321,-10.252Z" style="fill:#cdaa97;fill-rule:nonzero;"/></g><g transform="matrix(1,0,0,1,0,-12)"><path d="M378.88,132.618l-4.285,0l-4.618,-5.831l0.825,-11.984l7.734,-1.843l5.117,2l0.335,11.827l-5.108,5.831Z" style="fill:#cdaa97;fill-rule:nonzero;"/></g><g transform="matrix(1,0,0,1,0,-12)"><path d="M370.492,119.467l-2.821,0.046l-0.223,4.831l2.878,-0.146l0.166,-4.731Z" style="fill:#cdaa97;fill-rule:nonzero;"/></g><g transform="matrix(1,0,0,1,0,-12)"><path d="M383.782,120.125l2.848,0.762l-0.223,4.05l-2.518,0.096l-0.107,-4.908Z" style="fill:#cdaa97;fill-rule:nonzero;"/></g><g transform="matrix(1,0,0,1,0,-12)"><path d="M364.75,177.583l4.756,57.334l5.409,0l1.201,-44.362l-2.796,13.998l1.079,37.741l5.924,-1.267l3.094,-36.233l4.033,-26.693l-22.7,-0.518Z" style="fill:#c1beba;fill-rule:nonzero;"/></g><g transform="matrix(1,0,0,1,0,-12)"><path d="M375.572,187.453l-2.72,19.112l1.282,25.359l-5.317,-6.896l-2.255,-25.903l9.01,-11.672Z" style="fill:#171818;fill-opacity:0.25;fill-rule:nonzero;"/></g><g transform="matrix(1,0,0,1,0,-12)"><path d="M394.953,169.797l2.349,5.668l-0.451,7.854l-2.653,-1l-0.541,-6.631l0.219,1.998l-2.399,0.105l0.632,-5.588l2.844,-2.406Z" style="fill:#cdaa97;fill-rule:nonzero;"/></g><g transform="matrix(1,0,0,1,0,-12)"><path d="M358.651,169.893l-1.776,4.401l0.157,7.252l2.9,-0.377l0.588,-6.627l-0.232,1.997l2.494,0.339l-0.751,-5.581l-3.38,-1.404Z" style="fill:#cdaa97;fill-rule:nonzero;"/></g><g transform="matrix(1,0,0,1,0,-12)"><path d="M391.282,147.745l-4.652,1.632l5.457,22.861l3.305,-1.433l-4.11,-23.06Z" style="fill:#cdaa97;fill-rule:nonzero;"/></g><g transform="matrix(1,0,0,1,0,-12)"><path d="M365.372,147.745l-4.228,-0.831l-2.709,23.807l3.605,0.59l3.332,-23.566Z" style="fill:#cdaa97;fill-rule:nonzero;"/></g><g transform="matrix(1,0,0,1,0,-12)"><path d="M369.118,134.985l-7.226,3.149l-3.057,24.785l4.915,1.018l2.405,-21.739l-1.373,35.395l22.668,0.507l-1.889,-33.2l4.661,21.356l4.653,-1.631l-5.362,-25.126l-5.839,-3.503l-7.872,3.933l-6.684,-4.944Z" style="fill:#ae1f25;fill-rule:nonzero;"/></g><g transform="matrix(1,0,0,1,0,-12)"><path d="M382.434,128.783l-4.554,11.217l-2.892,0l-3.455,-11.16l0.797,-0.38l2.743,1.54l2.915,0l3.538,-1.485l0.908,0.268Z" style="fill:#e4e2dc;fill-rule:nonzero;"/></g></g></g></svg>

<?xml version="1.0" encoding="UTF-8" standalone="no"?>
<!DOCTYPE svg PUBLIC "-//W3C//DTD SVG 1.1//EN" "http://www.w3.org/Graphics/SVG/1.1/DTD/svg11.dtd">
<svg width="100%" height="100%" viewBox="0 0 140 220" version="1.1" xmlns="http://www.w3.org/2000/svg" xmlns:xlink="http://www.w3.org/1999/xlink" xml:space="preserve" xmlns:serif="http://www.serif.com/" style="fill-rule:evenodd;clip-rule:evenodd;stroke-linejoin:round;stroke-miterlimit:2;">
    <g id="people-31" transform="matrix(1.27,0,0,1.27,-408.903,-84.8)">
        <g transform="matrix(1,0,0,1,0,-12)">
            <path d="M369.506,231.914L368.562,238.667L374.3,238.522L374.097,231.422L369.506,231.914Z" style="fill:rgb(85,63,55);fill-rule:nonzero;"/>
        </g>
        <g transform="matrix(1,0,0,1,0,-12)">
            <path d="M374.335,242.231L375.682,252L380.983,252L381.74,249.889L380.364,240.987L374.335,242.231Z" style="fill:rgb(85,63,55);fill-rule:nonzero;"/>
        </g>
        <g transform="matrix(1,0,0,1,0,-12)">
            <path d="M383.674,136.123L380.84,134.268L378.778,128.53L374.021,129.862L372.51,133.507L369.249,135.111L376.353,146.375L383.674,136.123Z" style="fill:rgb(205,170,151);fill-rule:nonzero;"/>
        </g>
        <g transform="matrix(1,0,0,1,0,-12)">
            <path d="M378.88,132.618L374.595,132.618L369.977,126.787L370.802,114.803L378.536,112.96L383.653,114.96L383.988,126.787L378.88,132.618Z" style="fill:rgb(205,170,151);fill-rule:nonzero;"/>
        </g>
        <g transform="matrix(1,0,0,1,0,-12)">
            <path d="M370.492,119.467L367.671,119.513L367.448,124.344L370.326,124.198L370.492,119.467Z" style="fill:rgb(205,170,151);fill-rule:nonzero;"/>
        </g>
        <g transform="matrix(1,0,0,1,0,-12)">
            <path d="M383.782,120.125L386.63,120.887L386.407,124.937L383.889,125.033L383.782,120.125Z" style="fill:rgb(205,170,151);fill-rule:nonzero;"/>
        </g>
        <g transform="matrix(1,0,0,1,0,-12)">
            <path d="M364.75,177.583L369.506,234.917L374.915,234.917L376.116,190.555L373.32,204.553L374.399,242.294L380.323,241.027L383.417,204.794L387.45,178.101L364.75,177.583Z" style="fill:rgb(193,190,186);fill-rule:nonzero;"/>
        </g>
        <g transform="matrix(1,0,0,1,0,-12)">
            <path d="M375.572,187.453L372.852,206.565L374.134,231.924L368.817,225.028L366.562,199.125L375.572,187.453Z" style="fill:rgb(23,24,24);fill-opacity:0.25;fill-rule:nonzero;"/>
        </g>
        <g transform="matrix(1,0,0,1,0,-12)">
            <path d="M394.953,169.797L397.302,175.465L396.851,183.319L394.198,182.319L393.657,175.688L393.876,177.686L391.477,177.791L392.109,172.203L394.953,169.797Z" style="fill:rgb(205,170,151);fill-rule:nonzero;"/>
        </g>
        <g transform="matrix(1,0,0,1,0,-12)">
            <path d="M358.651,169.893L356.875,174.294L357.032,181.546L359.932,181.169L360.52,174.542L360.288,176.539L362.782,176.878L362.031,171.297L358.651,169.893Z" style="fill:rgb(205,170,151);fill-rule:nonzero;"/>
        </g>
        <g transform="matrix(1,0,0,1,0,-12)">
            <path d="M391.282,147.745L386.63,149.377L392.087,172.238L395.392,170.805L391.282,147.745Z" style="fill:rgb(205,170,151);fill-rule:nonzero;"/>
        </g>
        <g transform="matrix(1,0,0,1,0,-12)">
            <path d="M365.372,147.745L361.144,146.914L358.435,170.721L362.04,171.311L365.372,147.745Z" style="fill:rgb(205,170,151);fill-rule:nonzero;"/>
        </g>
        <g transform="matrix(1,0,0,1,0,-12)">
            <path d="M369.118,134.985L361.892,138.134L358.835,162.919L363.75,163.937L366.155,142.198L364.782,177.593L387.45,178.1L385.561,144.9L390.222,166.256L394.875,164.625L389.513,139.499L383.674,135.996L375.802,139.929L369.118,134.985Z" style="fill:rgb(174,31,37);fill-rule:nonzero;"/>
        </g>
        <g transform="matrix(1,0,0,1,0,-12)">
            <path d="M382.434,128.783L377.88,140L374.988,140L371.533,128.84L372.33,128.46L375.073,130L377.988,130L381.526,128.515L382.434,128.783Z" style="fill:rgb(228,226,220);fill-rule:nonzero;"/>
        </g>
    </g>
</svg>
